X: 1
T: Elmer's Tune
M: 2/4
L: 1/8
R: polka
K: Dmaj
|: F>E |
D>D FA | f/f/f fe | dF B>F | A2 G2 |
A,>A CE | e/e/e ed |1 cB AE | G2 :|2 cA Bc | d2 ||
|: d>f |ab a>f | ab a2 | Ad ce | BA BA/f/ |
ab a>f | ab a>A | Ag fe |1 Bc :|
2 d2 ||
|: AF |
D>D FA | f/f/f/f/ fe | d>F B>F | AB/A/ G2 |
A/A/A/A/ ce | gg/g/ gf/f/ | eB d>c |1 B2  :|2 d2 ||
|: d/e/f/g/ |ab a>f | ab a>f | Ad ce | B2 A>f |
ab a>f | ab a>d | Ag fe |1 Bc :|
2 Bc d2 ||
